Adwaita++/places/16/folder-templates.svg

<svg height="16" width="16" xmlns="http://www.w3.org/2000/svg">
  <path d="m3 1c-.554 0-1 .446-1 1v9h1v-1h1v-7h5v3h3v8 1h1v-1h1v-9l-4-4zm10 14v1h1v-1zm-1 0h-1v1h1zm-1 0v-1h-1v1zm-1 0h-1v1h1zm-1 0v-1h-1v1zm-1 0h-1v1h1zm-1 0v-1h-1v1zm-1 0h-1v1h1zm-1 0v-1h-1v1zm-1 0h-1v1h1zm-1 0v-1h-1v1zm0-1h1v-1h-1zm0-1v-1h-1v1zm0-1h1v-1h-1z" fill="#474747"/>
</svg>

<svg xmlns="http://www.w3.org/2000/svg" width="16" height="16" version="1.1">
 <defs>
  <style id="current-color-scheme" type="text/css">
   .ColorScheme-Text { color:#474747; } .ColorScheme-Highlight { color:#4285f4; }
  </style>
 </defs>
 <path style="fill:currentColor" class="ColorScheme-Text" d="M 3,1 C 2.446,1 2,1.446 2,2 V 11 H 3 V 10 H 4 V 3 H 9 V 6 H 12 V 14 15 H 13 V 14 H 14 V 5 L 10,1 Z M 13,15 V 16 H 14 V 15 Z M 12,15 H 11 V 16 H 12 Z M 11,15 V 14 H 10 V 15 Z M 10,15 H 9 V 16 H 10 Z M 9,15 V 14 H 8 V 15 Z M 8,15 H 7 V 16 H 8 Z M 7,15 V 14 H 6 V 15 Z M 6,15 H 5 V 16 H 6 Z M 5,15 V 14 H 4 V 15 Z M 4,15 H 3 V 16 H 4 Z M 3,15 V 14 H 2 V 15 Z M 3,14 H 4 V 13 H 3 Z M 3,13 V 12 H 2 V 13 Z M 3,12 H 4 V 11 H 3 Z"/>
</svg>
